X: 7
T: The Bloom Of Youth
R: reel
M: 4/4
L: 1/8
K: Gmaj
G2GDE2EG|DEGB AEE2|G2BG EGAB|dBAc BGFA|
G2GDE2EG|DEGB AEE2|G2BG EGAB|dBAc BGFA||
g2gd edBd|efgb agef|gedg edBd|eggd BGBd|
g2fg edBd|c2BGAGEF|GABc defa|g2fa gdBA||

